markets/SETHETH.svg

<svg width="42" height="42" viewBox="0 0 42 42" fill="none" xmlns="http://www.w3.org/2000/svg">
<path d="M0 21C0 32.598 9.40202 42 21 42V0C9.40202 0 0 9.40202 0 21Z" fill="white"/>
<path d="M21 42C32.598 42 42 32.598 42 21C42 9.40202 32.598 0 21 0V42Z" fill="#627EEA"/>
<path d="M30.9272 11V18.0517L36.8874 20.7149L30.9272 11Z" fill="white" fill-opacity="0.602"/>
<path d="M30.9272 11L24.9663 20.7149L30.9272 18.0517V11Z" fill="white"/>
<path d="M30.9272 25.2846V30.076L36.8914 21.8247L30.9272 25.2846Z" fill="white" fill-opacity="0.602"/>
<path d="M30.9272 30.076V25.2838L24.9663 21.8247L30.9272 30.076Z" fill="white"/>
<path d="M30.9272 24.1756L36.8874 20.7149L30.9272 18.0533V24.1756Z" fill="white" fill-opacity="0.2"/>
<path d="M24.9663 20.7149L30.9272 24.1756V18.0533L24.9663 20.7149Z" fill="white" fill-opacity="0.602"/>
<path d="M5.19759 19.55L5.05075 19.7692C3.36207 22.4 3.72918 25.8346 6.00522 28.0269C7.25337 29.3423 9.01547 30 10.7776 30C10.7776 30 10.7776 30 5.19759 19.55Z" fill="#00A3FF"/>
<path opacity="0.6" d="M10.7775 22.6923L5.19751 19.4769C10.7775 30 10.7775 30 10.7775 30C10.7775 27.7346 10.7775 25.1039 10.7775 22.6923Z" fill="#00A3FF"/>
<path opacity="0.6" d="M16.3576 19.55L16.5044 19.7692C18.1931 22.4 17.826 25.8346 15.5499 28.0269C14.2284 29.3423 12.5397 30 10.7776 30C10.7776 30 10.7776 30 16.3576 19.55Z" fill="#00A3FF"/>
<path opacity="0.2" d="M10.7776 22.6923L16.3576 19.4769C10.7776 30 10.7776 30 10.7776 30C10.7776 27.7346 10.7776 25.1039 10.7776 22.6923Z" fill="#00A3FF"/>
<path opacity="0.2" d="M10.7776 15.6038V21.0846L15.6234 18.3807L10.7776 15.6038Z" fill="#00A3FF"/>
<path opacity="0.6" d="M10.7777 15.6038L5.93188 18.3807L10.7777 21.0846V15.6038Z" fill="#00A3FF"/>
<path d="M10.7777 11L5.93188 18.3808L10.7777 15.6038V11Z" fill="#00A3FF"/>
<path opacity="0.6" d="M10.7776 15.6038L15.6234 18.3808L10.7776 11V15.6038Z" fill="#00A3FF"/>
</svg>

<svg width="42" height="42" viewBox="0 0 42 42" fill="none" xmlns="http://www.w3.org/2000/svg"><path d="M0 21c0 11.598 9.402 21 21 21V0C9.402 0 0 9.402 0 21z" fill="#fff"/><path d="M21 42c11.598 0 21-9.402 21-21S32.598 0 21 0v42z" fill="#627EEA"/><path d="M30.927 11v7.052l5.96 2.663L30.927 11z" fill="#fff" fill-opacity=".602"/><path d="M30.927 11l-5.96 9.715 5.96-2.663V11z" fill="#fff"/><path d="M30.927 25.285v4.791l5.964-8.251-5.964 3.46z" fill="#fff" fill-opacity=".602"/><path d="M30.927 30.076v-4.792l-5.96-3.46 5.96 8.252z" fill="#fff"/><path d="M30.927 24.176l5.96-3.461-5.96-2.662v6.123z" fill="#fff" fill-opacity=".2"/><path d="M24.966 20.715l5.961 3.46v-6.122l-5.96 2.662z" fill="#fff" fill-opacity=".602"/><path d="M5.198 19.55l-.147.22c-1.689 2.63-1.322 6.065.954 8.257C7.253 29.342 9.015 30 10.778 30l-5.58-10.45z" fill="#00A3FF"/><path opacity=".6" d="M10.777 22.692l-5.58-3.215L10.778 30v-7.308zm5.581-3.142l.146.22c1.69 2.63 1.322 6.065-.954 8.257A6.682 6.682 0 0110.778 30l5.58-10.45z" fill="#00A3FF"/><path opacity=".2" d="M10.778 22.692l5.58-3.215L10.778 30v-7.308zm0-7.088v5.48l4.845-2.703-4.845-2.777z" fill="#00A3FF"/><path opacity=".6" d="M10.778 15.604L5.932 18.38l4.846 2.704v-5.481z" fill="#00A3FF"/><path d="M10.778 11l-4.846 7.38 4.846-2.776V11z" fill="#00A3FF"/><path opacity=".6" d="M10.778 15.604l4.845 2.777L10.778 11v4.604z" fill="#00A3FF"/></svg>
